dist/intermediate-svg/appeal.svg

<?xml version="1.0" encoding="utf-8"?><svg width="24" height="23.23" fill="none" xmlns="http://www.w3.org/2000/svg" viewBox="0 0 31 30"><circle cx="15.5" cy="15" r="14.5" stroke="#BABABA"/><path d="M23.3669 20.9539L16.2689 8.47323C16.0915 8.17748 15.7957 8 15.5 8C15.2043 8 14.9085 8.17748 14.7311 8.47323L7.63309 20.9539C7.45564 21.2496 7.45564 21.5454 7.63309 21.8411C7.81054 22.1369 8.10628 22.2552 8.40203 22.2552H22.598C22.8937 22.2552 23.1895 22.0777 23.3669 21.8411C23.5444 21.5454 23.5444 21.1905 23.3669 20.9539ZM16.683 19.8892C16.683 20.2441 16.4464 20.4807 16.0915 20.4807H14.9085C14.5536 20.4807 14.317 20.2441 14.317 19.8892V18.7062C14.317 18.3513 14.5536 18.1147 14.9085 18.1147H16.0915C16.4464 18.1147 16.683 18.3513 16.683 18.7062V19.8892ZM16.683 14.5657L16.3281 16.6951C16.3281 16.8134 16.2098 16.9317 16.0323 16.9317H14.9677C14.8494 16.9317 14.6719 16.8134 14.6719 16.6951L14.317 14.5657V12.7912C14.317 12.4363 14.5536 12.1997 14.9085 12.1997H16.0915C16.4464 12.1997 16.683 12.4363 16.683 12.7912V14.5657Z" fill="#333"/></svg>

<?xml version="1.0" encoding="utf-8"?><svg width="24" height="23.23" fill="none" xmlns="http://www.w3.org/2000/svg" viewBox="0 0 31 30"><circle cx="15.5" cy="15" r="14.5" stroke="#BABABA"/><path d="M23.367 20.954l-7.098-12.48C16.092 8.176 15.796 8 15.5 8c-.296 0-.591.177-.769.473l-7.098 12.48a.806.806 0 000 .888c.178.296.473.414.769.414h14.196c.296 0 .591-.177.769-.414.177-.296.177-.65 0-.887zm-6.684-1.065c0 .355-.237.592-.591.592h-1.183c-.355 0-.592-.237-.592-.592v-1.183c0-.355.237-.591.591-.591h1.184c.354 0 .591.236.591.591v1.183zm0-5.323l-.355 2.13c0 .117-.118.236-.296.236h-1.064c-.119 0-.296-.119-.296-.237l-.355-2.13v-1.774c0-.355.237-.591.591-.591h1.184c.354 0 .591.236.591.591v1.775z" fill="#333"/></svg>
